assets/svgSource/linkedin.svg

<svg viewBox="0 0 40 40" xmlns="http://www.w3.org/2000/svg">
<path d="M37.6001 0.800049H2.40005C1.44005 0.800049 0.800049 1.44005 0.800049 2.40005V37.6001C0.800049 38.5601 1.44005 39.2001 2.40005 39.2001H37.6001C38.5601 39.2001 39.2001 38.5601 39.2001 37.6001V2.40005C39.2001 1.44005 38.5601 0.800049 37.6001 0.800049ZM12.16 33.6001H6.56005V15.2H12.32V33.6001H12.16ZM9.28005 12.64C7.52005 12.64 5.92005 11.2 5.92005 9.28005C5.92005 7.52005 7.36005 5.92005 9.28005 5.92005C11.04 5.92005 12.64 7.36005 12.64 9.28005C12.64 11.2 11.2 12.64 9.28005 12.64ZM33.6001 33.6001H27.84V24.64C27.84 22.56 27.84 19.84 24.96 19.84C21.92 19.84 21.6 22.08 21.6 24.48V33.6001H15.84V15.2H21.28V17.76C22.08 16.32 23.84 14.88 26.7201 14.88C32.4801 14.88 33.6001 18.72 33.6001 23.68V33.6001Z" fill="currentColor"/>
</svg>

<svg viewBox="0 0 40 40" xmlns="http://www.w3.org/2000/svg"><path d="M37.6.8H2.4C1.44.8.8 1.44.8 2.4v35.2c0 .96.64 1.6 1.6 1.6h35.2c.96 0 1.6-.64 1.6-1.6V2.4c0-.96-.64-1.6-1.6-1.6ZM12.16 33.6h-5.6V15.2h5.76v18.4h-.16ZM9.28 12.64c-1.76 0-3.36-1.44-3.36-3.36 0-1.76 1.44-3.36 3.36-3.36 1.76 0 3.36 1.44 3.36 3.36s-1.44 3.36-3.36 3.36ZM33.6 33.6h-5.76v-8.96c0-2.08 0-4.8-2.88-4.8-3.04 0-3.36 2.24-3.36 4.64v9.12h-5.76V15.2h5.44v2.56c.8-1.44 2.56-2.88 5.44-2.88 5.76 0 6.88 3.84 6.88 8.8v9.92Z" fill="currentColor"/></svg>
